X: 24763
T: Maenpaan Heikin Valssi
R: waltz
M: 3/4
K: Gminor
({GA}[D2G2] {A/}[DG]{A/}[DG] {A/}[DG]{A/}[DG])|B2 A2 G2|A2 F2 D2|G2 F2 D2|
({GA}[D2G2] {A/}[DG]{A/}[DG] {A/}[DG]{A/}[DG])|B2 A2 GF|D2 DF AF|G6:|

